X:5841
T:Gan Ainm
R:reel
S:
H:
N:
D:Milltown Session
Z:Adrian Scahill
M:4/4
L:1/8
K:G
GBB2 dBGB|cdec dBGB|cee2 dBGB|AdBG AGED|\
GBB2 dBGB|cdec dBGB|cee2 dBGB|ADFA G4:||\
dggd edBc|d2BG AGEG|dgg2 edBd|eaa^g a=gef|\
gdBd GdBd|cABG AGED|CGce dBGB|ADFA G4:||
